static/img/kroki/4a4a505b1bfde4d149d130faed19664d.svg

<?xml version="1.0" encoding="us-ascii" standalone="no"?><svg xmlns="http://www.w3.org/2000/svg" xmlns:xlink="http://www.w3.org/1999/xlink" contentStyleType="text/css" height="1006px" preserveAspectRatio="none" style="width:417px;height:1006px;" version="1.1" viewBox="0 0 417 1006" width="417px" zoomAndPan="magnify"><defs/><g><!--class azure_monitor_log_profile--><g id="elem_azure_monitor_log_profile"><rect codeLine="23" fill="#3D176E" height="179.2734" id="azure_monitor_log_profile" rx="2.5" ry="2.5" style="stroke:#000D19;stroke-width:0.5;" width="403" x="7" y="660.14"/><ellipse cx="90.25" cy="680.0345" fill="#ADD1B2" rx="11" ry="11" style="stroke:#181818;stroke-width:1.0;"/><path d="M93.2188,685.6752 Q92.6406,685.972 92,686.1127 Q91.3594,686.2689 90.6563,686.2689 Q88.1563,686.2689 86.8281,684.6283 Q85.5156,682.972 85.5156,679.847 Q85.5156,676.722 86.8281,675.0658 Q88.1563,673.4095 90.6563,673.4095 Q91.3594,673.4095 92,673.5658 Q92.6563,673.722 93.2188,674.0189 L93.2188,676.7377 Q92.5938,676.1595 92,675.8939 Q91.4063,675.6127 90.7813,675.6127 Q89.4375,675.6127 88.75,676.6908 Q88.0625,677.7533 88.0625,679.847 Q88.0625,681.9408 88.75,683.0189 Q89.4375,684.0814 90.7813,684.0814 Q91.4063,684.0814 92,683.8158 Q92.5938,683.5345 93.2188,682.9564 L93.2188,685.6752 Z " fill="#000000"/><text fill="#D9B8FF" font-family="Helvetica" font-size="17" lengthAdjust="spacing" textLength="218" x="115.75" y="685.9198">azure_monitor_log_profile</text><line style="stroke:#000D19;stroke-width:0.5;" x1="8" x2="409" y1="699.9291" y2="699.9291"/><text fill="#D9B8FF" font-family="sans-serif" font-size="14" font-weight="bold" lengthAdjust="spacing" textLength="71" x="18" y="721.9242">locations</text><text fill="#D9B8FF" font-family="sans-serif" font-size="14" lengthAdjust="spacing" textLength="58" x="89" y="721.9242">: string[]</text><text fill="#D9B8FF" font-family="sans-serif" font-size="14" font-weight="bold" lengthAdjust="spacing" textLength="157" x="18" y="748.2211">log_retention_policy</text><text fill="#D9B8FF" font-family="sans-serif" font-size="14" lengthAdjust="spacing" textLength="224" x="175" y="748.2211">: azure_monitor_retention_policy</text><text fill="#D9B8FF" font-family="sans-serif" font-size="14" font-weight="bold" lengthAdjust="spacing" textLength="142" x="18" y="774.5179">profile_categories</text><text fill="#D9B8FF" font-family="sans-serif" font-size="14" lengthAdjust="spacing" textLength="58" x="160" y="774.5179">: string[]</text><text fill="#D9B8FF" font-family="sans-serif" font-size="14" font-weight="bold" lengthAdjust="spacing" textLength="153" x="18" y="800.8148">service_bus_rule_id</text><text fill="#D9B8FF" font-family="sans-serif" font-size="14" lengthAdjust="spacing" textLength="48" x="171" y="800.8148">: string</text><text fill="#D9B8FF" font-family="sans-serif" font-size="14" font-weight="bold" lengthAdjust="spacing" textLength="152" x="18" y="827.1117">storage_account_id</text><text fill="#D9B8FF" font-family="sans-serif" font-size="14" lengthAdjust="spacing" textLength="48" x="170" y="827.1117">: string</text></g><!--class azure_monitor_retention_policy--><g id="elem_azure_monitor_retention_policy"><rect codeLine="30" fill="#3D176E" height="100.3828" id="azure_monitor_retention_policy" rx="2.5" ry="2.5" style="stroke:#000D19;stroke-width:0.5;" width="308" x="54.5" y="899.42"/><ellipse cx="69.5" cy="919.3145" fill="#ADD1B2" rx="11" ry="11" style="stroke:#181818;stroke-width:1.0;"/><path d="M72.4688,924.9552 Q71.8906,925.252 71.25,925.3927 Q70.6094,925.5489 69.9063,925.5489 Q67.4063,925.5489 66.0781,923.9083 Q64.7656,922.252 64.7656,919.127 Q64.7656,916.002 66.0781,914.3458 Q67.4063,912.6895 69.9063,912.6895 Q70.6094,912.6895 71.25,912.8458 Q71.9063,913.002 72.4688,913.2989 L72.4688,916.0177 Q71.8438,915.4395 71.25,915.1739 Q70.6563,914.8927 70.0313,914.8927 Q68.6875,914.8927 68,915.9708 Q67.3125,917.0333 67.3125,919.127 Q67.3125,921.2208 68,922.2989 Q68.6875,923.3614 70.0313,923.3614 Q70.6563,923.3614 71.25,923.0958 Q71.8438,922.8145 72.4688,922.2364 L72.4688,924.9552 Z " fill="#000000"/><text fill="#D9B8FF" font-family="Helvetica" font-size="17" lengthAdjust="spacing" textLength="266" x="88.5" y="925.1998">azure_monitor_retention_policy</text><line style="stroke:#000D19;stroke-width:0.5;" x1="55.5" x2="361.5" y1="939.2091" y2="939.2091"/><text fill="#D9B8FF" font-family="sans-serif" font-size="14" font-weight="bold" lengthAdjust="spacing" textLength="37" x="65.5" y="961.2042">days</text><text fill="#D9B8FF" font-family="sans-serif" font-size="14" lengthAdjust="spacing" textLength="44" x="102.5" y="961.2042">: int64</text><text fill="#D9B8FF" font-family="sans-serif" font-size="14" font-weight="bold" lengthAdjust="spacing" textLength="63" x="65.5" y="987.5011">enabled</text><text fill="#D9B8FF" font-family="sans-serif" font-size="14" lengthAdjust="spacing" textLength="65" x="128.5" y="987.5011">: boolean</text></g><!--class microsoft_resource--><g id="elem_microsoft_resource"><rect codeLine="34" fill="#3D176E" height="100.3828" id="microsoft_resource" rx="2.5" ry="2.5" style="stroke:#000D19;stroke-width:0.5;" width="214" x="101.5" y="438.76"/><ellipse cx="122.8" cy="458.6545" fill="#ADD1B2" rx="11" ry="11" style="stroke:#181818;stroke-width:1.0;"/><path d="M125.7688,464.2952 Q125.1906,464.592 124.55,464.7327 Q123.9094,464.8889 123.2063,464.8889 Q120.7063,464.8889 119.3781,463.2483 Q118.0656,461.592 118.0656,458.467 Q118.0656,455.342 119.3781,453.6858 Q120.7063,452.0295 123.2063,452.0295 Q123.9094,452.0295 124.55,452.1858 Q125.2063,452.342 125.7688,452.6389 L125.7688,455.3577 Q125.1438,454.7795 124.55,454.5139 Q123.9563,454.2327 123.3313,454.2327 Q121.9875,454.2327 121.3,455.3108 Q120.6125,456.3733 120.6125,458.467 Q120.6125,460.5608 121.3,461.6389 Q121.9875,462.7014 123.3313,462.7014 Q123.9563,462.7014 124.55,462.4358 Q125.1438,462.1545 125.7688,461.5764 L125.7688,464.2952 Z " fill="#000000"/><text fill="#D9B8FF" font-family="Helvetica" font-size="17" lengthAdjust="spacing" textLength="158" x="143.2" y="464.5398">microsoft_resource</text><line style="stroke:#000D19;stroke-width:0.5;" x1="102.5" x2="314.5" y1="478.5491" y2="478.5491"/><text fill="#D9B8FF" font-family="sans-serif" font-size="14" font-weight="bold" lengthAdjust="spacing" textLength="35" x="112.5" y="500.5442">etag</text><text fill="#D9B8FF" font-family="sans-serif" font-size="14" lengthAdjust="spacing" textLength="48" x="147.5" y="500.5442">: string</text><text fill="#D9B8FF" font-family="sans-serif" font-size="14" font-weight="bold" lengthAdjust="spacing" textLength="144" x="112.5" y="526.8411">provisioning_state</text><text fill="#D9B8FF" font-family="sans-serif" font-size="14" lengthAdjust="spacing" textLength="48" x="256.5" y="526.8411">: string</text></g><!--class resource--><g id="elem_resource"><rect codeLine="38" fill="#3D176E" height="310.7578" id="resource" rx="2.5" ry="2.5" style="stroke:#000D19;stroke-width:0.5;" width="227" x="95" y="7"/><ellipse cx="163.75" cy="26.8945" fill="#ADD1B2" rx="11" ry="11" style="stroke:#181818;stroke-width:1.0;"/><path d="M166.7188,32.5352 Q166.1406,32.832 165.5,32.9727 Q164.8594,33.1289 164.1563,33.1289 Q161.6563,33.1289 160.3281,31.4883 Q159.0156,29.832 159.0156,26.707 Q159.0156,23.582 160.3281,21.9258 Q161.6563,20.2695 164.1563,20.2695 Q164.8594,20.2695 165.5,20.4258 Q166.1563,20.582 166.7188,20.8789 L166.7188,23.5977 Q166.0938,23.0195 165.5,22.7539 Q164.9063,22.4727 164.2813,22.4727 Q162.9375,22.4727 162.25,23.5508 Q161.5625,24.6133 161.5625,26.707 Q161.5625,28.8008 162.25,29.8789 Q162.9375,30.9414 164.2813,30.9414 Q164.9063,30.9414 165.5,30.6758 Q166.0938,30.3945 166.7188,29.8164 L166.7188,32.5352 Z " fill="#000000"/><text fill="#D9B8FF" font-family="Helvetica" font-size="17" lengthAdjust="spacing" textLength="71" x="189.25" y="32.7798">resource</text><line style="stroke:#000D19;stroke-width:0.5;" x1="96" x2="321" y1="46.7891" y2="46.7891"/><text fill="#D9B8FF" font-family="sans-serif" font-size="14" font-weight="bold" lengthAdjust="spacing" textLength="29" x="106" y="68.7842">age</text><text fill="#D9B8FF" font-family="sans-serif" font-size="14" lengthAdjust="spacing" textLength="66" x="135" y="68.7842">: duration</text><text fill="#D9B8FF" font-family="sans-serif" font-size="14" font-weight="bold" lengthAdjust="spacing" textLength="43" x="106" y="95.0811">atime</text><text fill="#D9B8FF" font-family="sans-serif" font-size="14" lengthAdjust="spacing" textLength="70" x="149" y="95.0811">: datetime</text><text fill="#D9B8FF" font-family="sans-serif" font-size="14" font-weight="bold" lengthAdjust="spacing" textLength="43" x="106" y="121.3779">ctime</text><text fill="#D9B8FF" font-family="sans-serif" font-size="14" lengthAdjust="spacing" textLength="70" x="149" y="121.3779">: datetime</text><text fill="#D9B8FF" font-family="sans-serif" font-size="14" font-weight="bold" lengthAdjust="spacing" textLength="14" x="106" y="147.6748">id</text><text fill="#D9B8FF" font-family="sans-serif" font-size="14" lengthAdjust="spacing" textLength="48" x="120" y="147.6748">: string</text><text fill="#D9B8FF" font-family="sans-serif" font-size="14" font-weight="bold" lengthAdjust="spacing" textLength="33" x="106" y="173.9717">kind</text><text fill="#D9B8FF" font-family="sans-serif" font-size="14" lengthAdjust="spacing" textLength="48" x="139" y="173.9717">: string</text><text fill="#D9B8FF" font-family="sans-serif" font-size="14" font-weight="bold" lengthAdjust="spacing" textLength="90" x="106" y="200.2686">last_access</text><text fill="#D9B8FF" font-family="sans-serif" font-size="14" lengthAdjust="spacing" textLength="66" x="196" y="200.2686">: duration</text><text fill="#D9B8FF" font-family="sans-serif" font-size="14" font-weight="bold" lengthAdjust="spacing" textLength="90" x="106" y="226.5654">last_update</text><text fill="#D9B8FF" font-family="sans-serif" font-size="14" lengthAdjust="spacing" textLength="66" x="196" y="226.5654">: duration</text><text fill="#D9B8FF" font-family="sans-serif" font-size="14" font-weight="bold" lengthAdjust="spacing" textLength="48" x="106" y="252.8623">mtime</text><text fill="#D9B8FF" font-family="sans-serif" font-size="14" lengthAdjust="spacing" textLength="70" x="154" y="252.8623">: datetime</text><text fill="#D9B8FF" font-family="sans-serif" font-size="14" font-weight="bold" lengthAdjust="spacing" textLength="43" x="106" y="279.1592">name</text><text fill="#D9B8FF" font-family="sans-serif" font-size="14" lengthAdjust="spacing" textLength="48" x="149" y="279.1592">: string</text><text fill="#D9B8FF" font-family="sans-serif" font-size="14" font-weight="bold" lengthAdjust="spacing" textLength="34" x="106" y="305.4561">tags</text><text fill="#D9B8FF" font-family="sans-serif" font-size="14" lengthAdjust="spacing" textLength="171" x="140" y="305.4561">: dictionary[string, string]</text></g><!--link azure_monitor_log_profile to azure_monitor_retention_policy--><g id="link_azure_monitor_log_profile_azure_monitor_retention_policy"><path codeLine="50" d="M208.5,839.86 C208.5,860.16 208.5,875.03 208.5,892.98 " fill="none" id="azure_monitor_log_profile-to-azure_monitor_retention_policy" style="stroke:#FFAF37;stroke-width:2.0;"/><polygon fill="#FFAF37" points="208.5,898.98,212.5,889.98,208.5,893.98,204.5,889.98,208.5,898.98" style="stroke:#FFAF37;stroke-width:2.0;"/></g><!--reverse link microsoft_resource to azure_monitor_log_profile--><g id="link_microsoft_resource_azure_monitor_log_profile"><path codeLine="51" d="M208.5,557.55 C208.5,591.53 208.5,619.56 208.5,659.79 " fill="none" id="microsoft_resource-backto-azure_monitor_log_profile" style="stroke:#FFAF37;stroke-width:2.0;"/><polygon fill="none" points="208.5,539.55,202.5,557.55,214.5,557.55,208.5,539.55" style="stroke:#FFAF37;stroke-width:2.0;"/></g><!--reverse link resource to microsoft_resource--><g id="link_resource_microsoft_resource"><path codeLine="52" d="M208.5,336.06 C208.5,379.66 208.5,405.98 208.5,438.43 " fill="none" id="resource-backto-microsoft_resource" style="stroke:#FFAF37;stroke-width:2.0;"/><polygon fill="none" points="208.5,318.06,202.5,336.06,214.5,336.06,208.5,318.06" style="stroke:#FFAF37;stroke-width:2.0;"/></g><!--SRC=[XPH1Rvj048Nl_XL8kLb5ifCsZgigKcgfQYzHrVGMHMZP7V3Ai8Dc1qTEs__U0TmK5XpVOERRD-yDAxRMG0HbnOUeX385yZE_iwvIfCheZWYVDrWWHHTPfhAhLTZyWexF0lUgXEWh57jWgrL8_DnQlNFWVNJPQtrMUfSJrivqyapAUMc1unwrAPJtTynaqvgXPyQiqvii2ybGzEBAB5VNCCAG3D0HMImMPhaEaREZtipzIZpO5uYM_QNT8yF8vcX4IxtfiY5w9aT1__LFUlokZB4kZpxqQZywJ-I01lM7hJButD2PAdn_Z6SWG3vKi1cbWlMDoLQJyBTJy4mtgulKIqsGbEWi8oK5vab5cDa2eb-p-Rn0hTYYy_FvHn4bCVRurDRpX83b2aapgR2m-j0WGxMGa8D7yKHa8KUo42fxeBtLaAIrJwWMqfh_HDCNOPL3ehIMJ3ni_vaC5TfeanbrQ4TRnzVlvHsSIWjenLB40fHxLIkj9lIOiIXvh4btkm5M-S2QPDjRBtFaDV4i2IUi3IGaI8EOcjejDnMsPLUJuysprFH4BTYAVFXXGMPnioFv6GGJsavTcQEzNgUScEDK2GDX2TqfMjqSKtHux7hlZioJH3rzgUBuzjmbcLZtfzzn79- -ghC072lC_W80]--></g></svg>

<svg xmlns="http://www.w3.org/2000/svg" width="417" height="1006" viewBox="0 0 417 1006"><rect width="403" height="179.273" x="7" y="660.14" fill="#3D176E" rx="2.5" ry="2.5" style="stroke:#000d19;stroke-width:.5"/><circle cx="90.25" cy="680.034" r="11" fill="#ADD1B2" style="stroke:#181818;stroke-width:1"/><path d="M93.219 685.675q-.578.297-1.219.438-.64.156-1.344.156-2.5 0-3.828-1.64-1.312-1.657-1.312-4.782t1.312-4.781q1.328-1.657 3.828-1.657.703 0 1.344.157.656.156 1.219.453v2.719q-.625-.579-1.219-.844-.594-.281-1.219-.281-1.344 0-2.031 1.078-.687 1.062-.687 3.156t.687 3.172q.688 1.062 2.031 1.062.625 0 1.219-.265.594-.282 1.219-.86z"/><text x="115.75" y="685.92" fill="#D9B8FF" font-family="Helvetica" font-size="17" textLength="218">azure_monitor_log_profile</text><path d="M8 699.929h401" style="stroke:#000d19;stroke-width:.5"/><text x="18" y="721.924" fill="#D9B8FF" font-family="sans-serif" font-size="14" font-weight="bold" textLength="71">locations</text><text x="89" y="721.924" fill="#D9B8FF" font-family="sans-serif" font-size="14" textLength="58">: string[]</text><text x="18" y="748.221" fill="#D9B8FF" font-family="sans-serif" font-size="14" font-weight="bold" textLength="157">log_retention_policy</text><text x="175" y="748.221" fill="#D9B8FF" font-family="sans-serif" font-size="14" textLength="224">: azure_monitor_retention_policy</text><text x="18" y="774.518" fill="#D9B8FF" font-family="sans-serif" font-size="14" font-weight="bold" textLength="142">profile_categories</text><text x="160" y="774.518" fill="#D9B8FF" font-family="sans-serif" font-size="14" textLength="58">: string[]</text><text x="18" y="800.815" fill="#D9B8FF" font-family="sans-serif" font-size="14" font-weight="bold" textLength="153">service_bus_rule_id</text><text x="171" y="800.815" fill="#D9B8FF" font-family="sans-serif" font-size="14" textLength="48">: string</text><text x="18" y="827.112" fill="#D9B8FF" font-family="sans-serif" font-size="14" font-weight="bold" textLength="152">storage_account_id</text><text x="170" y="827.112" fill="#D9B8FF" font-family="sans-serif" font-size="14" textLength="48">: string</text><rect width="308" height="100.383" x="54.5" y="899.42" fill="#3D176E" rx="2.5" ry="2.5" style="stroke:#000d19;stroke-width:.5"/><circle cx="69.5" cy="919.314" r="11" fill="#ADD1B2" style="stroke:#181818;stroke-width:1"/><path d="M72.469 924.955q-.578.297-1.219.438-.64.156-1.344.156-2.5 0-3.828-1.64-1.312-1.657-1.312-4.782t1.312-4.781q1.328-1.657 3.828-1.657.703 0 1.344.157.656.156 1.219.453v2.719q-.625-.579-1.219-.844-.594-.281-1.219-.281-1.344 0-2.031 1.078-.687 1.062-.687 3.156t.687 3.172q.688 1.062 2.031 1.062.625 0 1.219-.265.594-.282 1.219-.86z"/><text x="88.5" y="925.2" fill="#D9B8FF" font-family="Helvetica" font-size="17" textLength="266">azure_monitor_retention_policy</text><path d="M55.5 939.209h306" style="stroke:#000d19;stroke-width:.5"/><text x="65.5" y="961.204" fill="#D9B8FF" font-family="sans-serif" font-size="14" font-weight="bold" textLength="37">days</text><text x="102.5" y="961.204" fill="#D9B8FF" font-family="sans-serif" font-size="14" textLength="44">: int64</text><text x="65.5" y="987.501" fill="#D9B8FF" font-family="sans-serif" font-size="14" font-weight="bold" textLength="63">enabled</text><text x="128.5" y="987.501" fill="#D9B8FF" font-family="sans-serif" font-size="14" textLength="65">: boolean</text><rect width="214" height="100.383" x="101.5" y="438.76" fill="#3D176E" rx="2.5" ry="2.5" style="stroke:#000d19;stroke-width:.5"/><circle cx="122.8" cy="458.654" r="11" fill="#ADD1B2" style="stroke:#181818;stroke-width:1"/><path d="M125.769 464.295q-.578.297-1.219.438-.64.156-1.344.156-2.5 0-3.828-1.64-1.312-1.657-1.312-4.782t1.312-4.781q1.328-1.656 3.828-1.656.703 0 1.344.156.656.156 1.219.453v2.719q-.625-.579-1.219-.844-.594-.281-1.219-.281-1.344 0-2.031 1.078-.687 1.062-.687 3.156t.687 3.172q.688 1.062 2.031 1.062.625 0 1.219-.265.594-.281 1.219-.86z"/><text x="143.2" y="464.54" fill="#D9B8FF" font-family="Helvetica" font-size="17" textLength="158">microsoft_resource</text><path d="M102.5 478.549h212" style="stroke:#000d19;stroke-width:.5"/><text x="112.5" y="500.544" fill="#D9B8FF" font-family="sans-serif" font-size="14" font-weight="bold" textLength="35">etag</text><text x="147.5" y="500.544" fill="#D9B8FF" font-family="sans-serif" font-size="14" textLength="48">: string</text><text x="112.5" y="526.841" fill="#D9B8FF" font-family="sans-serif" font-size="14" font-weight="bold" textLength="144">provisioning_state</text><text x="256.5" y="526.841" fill="#D9B8FF" font-family="sans-serif" font-size="14" textLength="48">: string</text><rect width="227" height="310.758" x="95" y="7" fill="#3D176E" rx="2.5" ry="2.5" style="stroke:#000d19;stroke-width:.5"/><circle cx="163.75" cy="26.895" r="11" fill="#ADD1B2" style="stroke:#181818;stroke-width:1"/><path d="M166.719 32.535q-.578.297-1.219.438-.64.156-1.344.156-2.5 0-3.828-1.64-1.312-1.657-1.312-4.782t1.312-4.781q1.328-1.656 3.828-1.656.703 0 1.344.156.656.156 1.219.453v2.719q-.625-.578-1.219-.844-.594-.281-1.219-.281-1.344 0-2.031 1.078-.687 1.062-.687 3.156t.687 3.172q.688 1.062 2.031 1.062.625 0 1.219-.265.594-.281 1.219-.86z"/><text x="189.25" y="32.78" fill="#D9B8FF" font-family="Helvetica" font-size="17" textLength="71">resource</text><path d="M96 46.789h225" style="stroke:#000d19;stroke-width:.5"/><text x="106" y="68.784" fill="#D9B8FF" font-family="sans-serif" font-size="14" font-weight="bold" textLength="29">age</text><text x="135" y="68.784" fill="#D9B8FF" font-family="sans-serif" font-size="14" textLength="66">: duration</text><text x="106" y="95.081" fill="#D9B8FF" font-family="sans-serif" font-size="14" font-weight="bold" textLength="43">atime</text><text x="149" y="95.081" fill="#D9B8FF" font-family="sans-serif" font-size="14" textLength="70">: datetime</text><text x="106" y="121.378" fill="#D9B8FF" font-family="sans-serif" font-size="14" font-weight="bold" textLength="43">ctime</text><text x="149" y="121.378" fill="#D9B8FF" font-family="sans-serif" font-size="14" textLength="70">: datetime</text><text x="106" y="147.675" fill="#D9B8FF" font-family="sans-serif" font-size="14" font-weight="bold" textLength="14">id</text><text x="120" y="147.675" fill="#D9B8FF" font-family="sans-serif" font-size="14" textLength="48">: string</text><text x="106" y="173.972" fill="#D9B8FF" font-family="sans-serif" font-size="14" font-weight="bold" textLength="33">kind</text><text x="139" y="173.972" fill="#D9B8FF" font-family="sans-serif" font-size="14" textLength="48">: string</text><text x="106" y="200.269" fill="#D9B8FF" font-family="sans-serif" font-size="14" font-weight="bold" textLength="90">last_access</text><text x="196" y="200.269" fill="#D9B8FF" font-family="sans-serif" font-size="14" textLength="66">: duration</text><text x="106" y="226.565" fill="#D9B8FF" font-family="sans-serif" font-size="14" font-weight="bold" textLength="90">last_update</text><text x="196" y="226.565" fill="#D9B8FF" font-family="sans-serif" font-size="14" textLength="66">: duration</text><text x="106" y="252.862" fill="#D9B8FF" font-family="sans-serif" font-size="14" font-weight="bold" textLength="48">mtime</text><text x="154" y="252.862" fill="#D9B8FF" font-family="sans-serif" font-size="14" textLength="70">: datetime</text><text x="106" y="279.159" fill="#D9B8FF" font-family="sans-serif" font-size="14" font-weight="bold" textLength="43">name</text><text x="149" y="279.159" fill="#D9B8FF" font-family="sans-serif" font-size="14" textLength="48">: string</text><text x="106" y="305.456" fill="#D9B8FF" font-family="sans-serif" font-size="14" font-weight="bold" textLength="34">tags</text><text x="140" y="305.456" fill="#D9B8FF" font-family="sans-serif" font-size="14" textLength="171">: dictionary[string, string]</text><path fill="none" d="M208.5 839.86v53.12" style="stroke:#ffaf37;stroke-width:2"/><path fill="#FFAF37" d="m208.5 898.98 4-9-4 4-4-4z" style="stroke:#ffaf37;stroke-width:2"/><path fill="none" d="M208.5 557.55v102.24m0-120.24-6 18h12zm0-203.49v102.37m0-120.37-6 18h12z" style="stroke:#ffaf37;stroke-width:2"/></svg>
